X: 1580
T: Miss Brown's Fancy
R:hornpipe
B:O'Neill's 1580
Z:Transcribed by Michael Hogan
M:C|
L:1/8
K:D
(3AGE | D2 D2 DFAF | dFAF dFAF | E2 (EF) GBEB | edcB AGFE |
 D2 D2 DFAF | dFAF GFED | DFAg faec | d2 d2 d2 :|
|: ag | (fd)dd fdad | fd (3efg a2 (ed) | (cA)AA (ce)Ae |  cdef g2 (eg) |
(fd)dd fdad | fd (3efg a2 (gf) | gbag fedc | d2 d2 d2 :||


